X: 1
T:Arthur Bignold Of Lochrosque, Fiddle arr.
M:2/4
L:1/8
Q:80
C:J. MacColl
S:March
K:HP
|: a3/4f/4|e3/2A/2 c3/2B/2|A3/4c/4a3/4f/4 e/2A/2c| d3/2G/2 B3/2A/2|G3/4B/4g3/4e/4 dc3/4d/2|
e3/2A/2 c3/2B/2| A3/4c/4a3/4f/4 e/2A/2c|e3/2c/2 B/4d3/4G3/4B/4|A2A:|
|:c3/4d/4|e a c a|A3/4c/4a3/4f/4 e/2A/2c| d g B g|G3/4B/4g3/4e/4 dc3/4d/2|
e a c a| A3/4c/4a3/4f/4 e/2A/2c|e3/2c/2 B/4d3/4G3/4B/4|A2A:|
|: e|AA3/4c/4 e/2A/2c|A3/4c/4a3/4f/4 ed3/4B/4| G3/4G/4G3/4B/4 d/2G/2B|G3/4B/4g3/4e/4 dc3/4B/4|
AA3/4c/4 e/2A/2c| A3/4c/4a3/4f/4 e/2A/2c|e3/2c/2 B/4d3/4G3/4B/4|A2A:|
 |: c3/4d/4|e/4a3/4c/2a/2 AA3/4c/4|e3/4d/4c3/4d/4 eA3/4c/4|  d/4g3/4B/2g/2 G3/4G/4G3/4B/4|d3/4c/4B/4e3/4 d/2G/2B|
|1 e/4a3/4c/2a/2 AA3/4c/4| e3/4d/4c3/4d/4 e/2A/2c|e3/2c/2 B/4d3/4G3/4B/4|A2A:|2
A3/4B/4c3/4d/4 c/4e3/4A3/4c/4| d/4f3/4c/4e3/4 e/2A/2c|e3/2c/2 B/4d3/4G3/4B/4| A2A|]

